X:39
T:Blekingpolskan
R:polska J
Z:id:hn-jp-39
M:3/4
L:1/16
K:D
|: d2fd A2A2 BA^GA | d2fd A2A2 TB2A2 | f2ef gage f2fd |
efed cdec A4 | d2fd A2A2 BA^GA | d2fd A2A2 TB2A2 | 
f2ef gage f2fd | efec d8 :||: f3g a2af a2af |
b2bg a2af g2e2 | f3g a2af a2af | b2bg a2af g2e2 |
d2fd A2A2 BA^GA | d2fd A2A2 TB2A2 | f2ef gage f2fd |
efec d8 :| [K:G] |: G2FG B2GB d2Bd | gfed c4 B4 |
B2AB cdcA B2BG | ABAF GAGD B,2D2 | G2FG B2GB d2Bd |
gfed c4 B4 | B2AB c2B2 A2G2 | F2EF G8 :|
|: D4 B,2D2 B2G2 | E3D CB,CD C4 | E4 ^C2E2 A2E2 |
F3G FED^C D4 | G2FG B2GB d2Bd | gfed c4 B4 |
B2AB c2B2 A2G2 | F2EF G8 :|
